X:383
T:Murdo's Wedding
R:March
M:4/4
L:1/8
K:A
ec |\
"A" A2 AB     A2 ce | "D" a2 fd "A/F#" e4 | "A" A2 AB      A2 ce | "Bm" f>e dc "E7" B2 ec  |
"A" A2 AB     A2 ce | "D" a2 fd "A/F#" e4 | "D" a2 fd "E7" e2 dB | "A" A4           A2 ce ||
||\
"D" a2 fd "A" e2 A2 | "D" a2 fd "A"    e4 | "A" A2 AB      A2 ce | "Bm" f>e dc "E7" B2 ec  |
"A" A2 AB     A2 ce | "D" a2 fd "A/F#" e4 | "D" a2 fd "E7" e2 dB | "A" A4           A2     |]
